X: 7893
T: Con Cassidy's
R: jig
M: 6/8
K: Gmajor
~B3 cBc|dgg d2g|fed cAF|G2g d2c|
~B3 cBc|dgg d2g|fed cAF|1 ~G3 G2A:|2 ~G3 G B/c/d||
|:~g3 ~f3|~e3 ~d2c|BAG B/c/dg|fed efg|
aAA gAA|fAA e2a|gfe def|1 gdB G2d:|2 gdB G2A||

